X:1
T:Minuet in G
T:Minuet in G
T:Libro de Ana Magdalena Bach
T:J.S. Bach
C:J.S. Bach
%%score { 1 | 2 }
L:1/8
M:3/4
K:G
V:1 treble nm="Piano" snm="Pno."
V:2 bass 
V:1
!mf! !5!d2 (!1!GABc | d2) .G2 .G2 | !4!e2 (!1!cdef | !5!g2) .G2 .G2 | !3!c2 (!4!dcBA | %5
 B2) (!4!cBAG | !2!F2) (!1!GABG | !3!B2 !2!A4) | !5!d2 (GABc | d2) .G2 .G2 | e2 (!1!cdef | %11
 g2) .G2 .G2 | !3!c2 (!4!dcBA | !2!B2) (!4!cBAG | A2) (!3!BA!1!G!2!F | !1!G6) |] %16
V:2
 !1!!3!!5![G,B,D]4 A,2 | B,6 | C6 | B,6 | !4!A,6 | G,6 | .!1!D2 .!3!B,2 .!5!G,2 | %7
 .!1!D2 !5!D,CB,A, | !2!B,4 A,2 | !4!G,2 .!2!B,2 .G,2 | !1!C6 | !2!B,2 !1!CB,A,G, | !1!A,4 !4!F,2 | %13
 !3!G,4 !1!B,2 | !2!C2 !1!D2 D,2 | !1!G,4 G,,2 |] %16

